X:150
T: WENN ICH EIN VOEGLEIN WAER
N: Z0149
O: Europa, Mitteleuropa, Deutschland, Schwaben
R: Erzaehlung, lustige Romanze
M: 3/4
L: 1/8
K: G
G2G2G2 | B3AG2 | B2B2B2 | d3cB2 | d2c2B2 | A4z2
A4GF | G2A2B2 | c4BA | B2c2d2 | dcB2A2 | G4z2

